build/img/icons/telegram.svg

<svg id="Слой_1" xmlns="http://www.w3.org/2000/svg" viewBox="0 0 14 12.1">
    <style>
        .st0{fill:#fff}
    </style>
    <path class="st0" d="M12 11.1c0 .2-.1.4-.2.5-.1.2-.3.3-.5.3-.2.1-.4.1-.6 0-.2-.1-.4-.2-.5-.3-1.1-.9-2.8-2.1-2.8-2.1S6.2 11.7 6 11.9c-.1.1-.2.1-.3.1h-.3c-.1 0-.2 0-.3-.1-.1 0-.2-.1-.2-.2v-.1l.7-3.5 4.9-4.8-6.7 3.9S.8 6.3.3 6.1c-.1 0-.1-.1-.2-.2-.1-.2-.1-.3-.1-.4 0-.1.1-.3.1-.4.1-.1.2-.2.3-.2C1 4.6 12.3.3 12.7.2c.4-.2 1.4-.5 1.3.5-.1 1-1.9 9.9-2 10.4z"/>
</svg>

<?xml version="1.0" encoding="utf-8"?>
<!-- Generator: Adobe Illustrator 21.1.0, SVG Export Plug-In . SVG Version: 6.00 Build 0)  -->
<svg version="1.1" id="Слой_1" xmlns="http://www.w3.org/2000/svg" xmlns:xlink="http://www.w3.org/1999/xlink" x="0px" y="0px"
	 viewBox="0 0 14 12.1" style="enable-background:new 0 0 14 12.1;" xml:space="preserve">
<style type="text/css">
	.st0{fill:#FFFFFF;}
</style>
<path class="st0" d="M12,11.1c0,0.2-0.1,0.4-0.2,0.5c-0.1,0.2-0.3,0.3-0.5,0.3c-0.2,0.1-0.4,0.1-0.6,0c-0.2-0.1-0.4-0.2-0.5-0.3
	c-1.1-0.9-2.8-2.1-2.8-2.1S6.2,11.7,6,11.9C5.9,12,5.8,12,5.7,12c-0.1,0-0.2,0-0.3,0c-0.1,0-0.2,0-0.3-0.1c-0.1,0-0.2-0.1-0.2-0.2
	c0,0,0-0.1,0-0.1l0.7-3.5l4.9-4.8L3.8,7.2c0,0-3-0.9-3.5-1.1C0.2,6.1,0.2,6,0.1,5.9C0,5.7,0,5.6,0,5.5c0-0.1,0.1-0.3,0.1-0.4
	C0.2,5,0.3,4.9,0.4,4.9c0.6-0.3,11.9-4.6,12.3-4.7C13.1,0,14.1-0.3,14,0.7C13.9,1.7,12.1,10.6,12,11.1z"/>
</svg>
